img/instagram.svg

<svg fill="none" height="31" viewBox="0 0 32 31" width="32" xmlns="http://www.w3.org/2000/svg" xmlns:xlink="http://www.w3.org/1999/xlink"><clipPath id="a"><path d="m.972656 0h30.9861v30.9861h-30.9861z"/></clipPath><g clip-path="url(#a)" fill="#fff"><path d="m16.471 7.53735c-4.3935 0-7.95049 3.56085-7.95049 7.95055 0 4.3935 3.56079 7.9505 7.95049 7.9505 4.3936 0 7.9505-3.5608 7.9505-7.9505 0-4.3936-3.5608-7.95055-7.9505-7.95055zm0 13.11095c-2.852 0-5.1605-2.3097-5.1605-5.1604 0-2.8508 2.3098-5.1605 5.1605-5.1605s5.1605 2.3097 5.1605 5.1605c.0013 2.8507-2.3085 5.1604-5.1605 5.1604z"/><path d="m22.8524.100261c-2.8508-.1329826-9.9117-.1265271-12.765 0-2.50732.117489-4.71896.723009-6.50195 2.505999-2.979831 2.97983-2.59896 6.99512-2.59896 12.88374 0 6.0268-.335683 9.9492 2.59896 12.8838 2.99145 2.9902 7.06485 2.599 12.88375 2.599 5.97 0 8.0306.0038 10.1415-.8134 2.8701-1.1142 5.0365-3.6796 5.2483-8.2875.1343-2.852.1265-9.9117 0-12.76501-.2557-5.43935-3.1748-8.738083-9.0066-9.006629zm4.5123 26.302039c-1.9534 1.9534-4.6634 1.7791-10.9329 1.7791-6.45547 0-9.0441.0956-10.93296-1.7985-2.17548-2.1651-1.7817-5.642-1.7817-10.9135 0-7.13329-.73205-12.27053 6.42706-12.6372 1.6448-.0581 2.129-.07746 6.2695-.07746l.0581.03873c6.8802 0 12.2782-.72043 12.6023 6.43737.0736 1.63326.0904 2.12386.0904 6.25786-.0013 6.3806.1201 8.9847-1.7998 10.9136z"/><path d="m24.7358 9.08147c1.0261 0 1.8579-.8318 1.8579-1.85787 0-1.02608-.8318-1.85788-1.8579-1.85788s-1.8579.8318-1.8579 1.85788c0 1.02607.8318 1.85787 1.8579 1.85787z"/></g></svg>

<svg width="32" height="31" viewBox="0 0 32 31" fill="none" xmlns="http://www.w3.org/2000/svg">
<g clip-path="url(#clip0_4_1802)">
<path d="M16.471 7.53735C12.0775 7.53735 8.52051 11.0982 8.52051 15.4879C8.52051 19.8814 12.0813 23.4384 16.471 23.4384C20.8646 23.4384 24.4215 19.8776 24.4215 15.4879C24.4215 11.0943 20.8607 7.53735 16.471 7.53735ZM16.471 20.6483C13.619 20.6483 11.3105 18.3386 11.3105 15.4879C11.3105 12.6371 13.6203 10.3274 16.471 10.3274C19.3217 10.3274 21.6315 12.6371 21.6315 15.4879C21.6328 18.3386 19.323 20.6483 16.471 20.6483Z" fill="white"/>
<path d="M22.8524 0.100261C20.0016 -0.0327216 12.9407 -0.0262661 10.0874 0.100261C7.58008 0.21775 5.36844 0.82327 3.58545 2.60626C0.605619 5.58609 0.98649 9.60138 0.98649 15.49C0.98649 21.5168 0.650807 25.4392 3.58545 28.3738C6.5769 31.364 10.6503 30.9728 16.4692 30.9728C22.4392 30.9728 24.4998 30.9766 26.6107 30.1594C29.4808 29.0452 31.6472 26.4798 31.859 21.8719C31.9933 19.0199 31.9855 11.9602 31.859 9.10689C31.6033 3.66754 28.6842 0.368807 22.8524 0.100261ZM27.3647 26.4023C25.4113 28.3557 22.7013 28.1814 16.4318 28.1814C9.97633 28.1814 7.3877 28.277 5.49884 26.3829C3.32336 24.2178 3.71714 20.7409 3.71714 15.4694C3.71714 8.33611 2.98509 3.19887 10.1442 2.8322C11.789 2.7741 12.2732 2.75474 16.4137 2.75474L16.4718 2.79347C23.352 2.79347 28.75 2.07304 29.0741 9.23084C29.1477 10.8641 29.1645 11.3547 29.1645 15.4887C29.1632 21.8693 29.2846 24.4734 27.3647 26.4023Z" fill="white"/>
<path d="M24.7358 9.08147C25.7619 9.08147 26.5937 8.24967 26.5937 7.2236C26.5937 6.19752 25.7619 5.36572 24.7358 5.36572C23.7097 5.36572 22.8779 6.19752 22.8779 7.2236C22.8779 8.24967 23.7097 9.08147 24.7358 9.08147Z" fill="white"/>
</g>
<defs>
<clipPath id="clip0_4_1802">
<rect width="30.9861" height="30.9861" fill="white" transform="translate(0.972656)"/>
</clipPath>
</defs>
</svg>
